X:1
T:Title
%%score { ( 1 4 5 ) | ( 2 3 ) }
L:1/8
M:6/8
K:C
V:1 treble nm="Grand Piano"
V:4 treble 
V:5 treble 
V:2 bass 
V:3 bass 
V:1
 z3 z[Q:1/4=87] [CE][DF] | [EG]>[FA][EG] [Ge][Fd]c | A>Bc [EG]2 E/D/ | C>DE [B,D]>[CE][DF] | %4
 [CE]3 [EG]E[DF] | [EG]>[FA][EG] [Ge][Fd]c | z3 .d3 | G>GG [DB][Ec][Fd] |[M:2/4] [Ec]4 | %9
[M:1/4] GG |[M:3/4] e4 z2 | G4 z2 | A4 z2 | G4 z2 | c4 z2 | e4 z2 | d6- | d4 z2 | A4 z2 | G4 z2 | %20
 F4 z2 | E4 z2 | A4 z2 |[M:13/16] G/-G/-G/-G/-G/-G-<G z/ z/ z |[M:3/4] e4 dc | d4 [Ge][Fd] | %26
[M:9/16] [Ec]4- [Ec]/ |] %27
V:2
 z3 z [C,G,][C,C] | [C,C]>[C,C][C,C] [C,C][D,B,][E,CE] | %2
 [F,CF]>[F,B,F][F,A,F] [C,C]2 [C,C]/-[C,F,C]/ | [C,E,]>[C,F,C][C,G,C] [G,,G,]>[G,,G,][A,,G,] | %4
 [C,G,]3 [C,C][C,C][C,C] | [C,C]>[C,C][C,C] [C,C][D,B,][E,CE] | %6
 [F,CF]>[F,CF][F,DF] .[D,A,]2 [D,D] | [G,DF]>[G,CE][K:bass][G,B,D] [G,,G,][G,,G,][G,,G,] | %8
[M:2/4] [C,G,]4 |[M:1/4][K:treble] EE |[M:3/4] G4[K:bass][K:treble] z2 | E4[K:bass] z2 | %12
 F4[K:treble] z2 | E4[K:bass] z2 | E4[K:treble] z2 | G4[K:bass][K:treble] z2 | %16
 G3[K:bass] [D,A,] D,D, | [G,B,]4 E[K:treble]G | F4[K:bass][K:treble] z2 | %19
 E4[K:bass][K:treble] z2 | D4[K:bass] z2 | C4[K:treble] z2 | F4[K:bass][K:treble] z2 | %23
[M:13/16][K:bass] E/-E/-E/-E/-E/-E-<E z/ z/[K:treble] z |[M:3/4] [CG]4 [CF][CE] | %25
 [G,B,F]4[K:bass] [G,,G,][G,,G,] |[M:9/16] [C,G,]4- [C,G,]/ |] %27
V:3
 x6 | x6 | z3 z2 .G, | x6 | x6 | x6 | x6 | x2[K:bass] x4 |[M:2/4] x4 |[M:1/4][K:treble] x2 | %10
[M:3/4] z[K:bass] C, C,C,[K:treble] FE | z[K:bass] C, C,C, _E=E | z F, F,F,[K:treble] GA | %13
 z[K:bass] C, C,C, CE | z C, C,C,[K:treble] EE | z[K:bass] C, C,C,[K:treble] FE | x3[K:bass] x3 | %17
 x5[K:treble] x | z[K:bass] F, F,F,[K:treble] GF | z[K:bass] C, C,C,[K:treble] FE | %20
 z[K:bass] G,, G,,G,, ED | z C, C,C,[K:treble] EG | z[K:bass] F, F,F,[K:treble] GF | %23
[M:13/16][K:bass] z C,C,C,3/2[E,CE][K:treble][B,F] |[M:3/4] x6 | x4[K:bass] x2 |[M:9/16] x9/2 |] %27
V:4
 x6 | x6 | x6 | x6 | x6 | x6 | A>^GA ^F-[DFc][FA] | x6 |[M:2/4] x4 |[M:1/4] x2 |[M:3/4] z C CC dc | %11
 z C CC ^FG | z C CC Bc | z C CC EG | z G, G,G, Gc | z C CC dc | z2 z ^F3 | x6 | z C CC BA | %19
 z C CC AG | z B, B,B, GF | z G, G,G, cB | z C CC BA |[M:13/16] z CCC3/2cd |[M:3/4] x6 | x6 | %26
[M:9/16] x9/2 |] %27
V:5
 x6 | x6 | x6 | x6 | x6 | x6 | x6 | x6 |[M:2/4] x4 |[M:1/4] x2 |[M:3/4] x6 | x6 | x6 | x6 | x6 | %15
 x6 | z G, .G,2 A,C | F4 cB | x6 | x6 | x6 | x6 | x6 |[M:13/16] x13/2 |[M:3/4] x6 | x6 | %26
[M:9/16] x9/2 |] %27

